frontend/public/images/dashboards/icon_companies.svg

<?xml version="1.0" encoding="UTF-8"?>
<svg width="49px" height="50px" viewBox="0 0 49 50" version="1.1" xmlns="http://www.w3.org/2000/svg" xmlns:xlink="http://www.w3.org/1999/xlink">
    <!-- Generator: Sketch 52.2 (67145) - http://www.bohemiancoding.com/sketch -->
    <title>Group 21</title>
    <desc>Created with Sketch.</desc>
    <defs>
        <polygon id="path-1" points="0 0 12.1569769 0 12.1569769 44.2070363 0 44.2070363"></polygon>
        <polygon id="path-3" points="0.550781646 0.00552587954 10.4646379 0.00552587954 10.4646379 3.31536195 0.550781646 3.31536195"></polygon>
    </defs>
    <g id="Page-1" stroke="none" stroke-width="1" fill="none" fill-rule="evenodd">
        <g id="dashboard-3" transform="translate(-735.000000, -325.000000)">
            <g id="Group-21" transform="translate(735.000000, 325.000000)">
                <g id="Group-3" transform="translate(0.000000, 4.967876)">
                    <mask id="mask-2" fill="white">
                        <use xlink:href="#path-1"></use>
                    </mask>
                    <g id="Clip-2"></g>
                    <path d="M2.23986001,41.9966845 L2.29788175,39.7863327 L7.73645239,39.7863327 C8.34650949,39.7863327 8.84162829,39.2912139 8.84162829,38.6811568 C8.84162829,38.0710997 8.34650949,37.5759808 7.73645239,37.5759808 L2.35590348,37.5759808 L3.19970529,5.52587954 L8.95711917,5.52587954 L9.91751704,41.9966845 L2.23986001,41.9966845 Z M8.87036287,2.21035181 L8.89909744,3.31552772 L3.25772702,3.31552772 L3.28701418,2.21035181 L8.87036287,2.21035181 Z M2.21057285,0 C1.61156751,0 1.12142199,0.477435992 1.10539694,1.07588875 L0.000221035181,43.0725732 C-0.00751519617,43.3709707 0.105765334,43.6594216 0.313538405,43.8732732 C0.521864063,44.0865721 0.806999447,44.2070363 1.10539694,44.2070363 L11.0519801,44.2070363 C11.349825,44.2070363 11.635513,44.0865721 11.8432861,43.8732732 C12.0516117,43.6594216 12.1643397,43.3709707 12.1566034,43.0725732 L11.0514275,1.07588875 C11.0354025,0.477435992 10.5458095,0 9.9468042,0 L2.21057285,0 Z" id="Fill-1" fill="#34444C" mask="url(#mask-2)"></path>
                </g>
                <g id="Group-6" transform="translate(3.868116, 0.547173)">
                    <mask id="mask-4" fill="white">
                        <use xlink:href="#path-3"></use>
                    </mask>
                    <g id="Clip-5"></g>
                    <path d="M9.1231166,0.0937741757 C8.59263216,0.209817646 8.08977712,0.436378707 7.636655,0.767931479 C7.02328237,1.21000184 6.23860748,1.21000184 5.62523485,0.767931479 C4.94002579,0.270602321 4.14429913,0.00536010315 3.32094308,0.00536010315 C2.48100939,0.00536010315 1.68528274,0.270602321 1.00559956,0.767931479 C0.767986738,0.944759624 0.613262111,1.19895008 0.563529195,1.4918217 C0.519322159,1.78469331 0.591158593,2.07203905 0.762460858,2.31517775 C1.11059127,2.78487751 1.83448149,2.90092098 2.30970713,2.55279057 C2.61915638,2.32622951 2.95623503,2.21571192 3.3154172,2.21571192 C3.67459937,2.21571192 4.0172039,2.33175539 4.32112728,2.55279057 C5.00633634,3.05011973 5.802063,3.31536195 6.63094493,3.31536195 C7.45982686,3.31536195 8.25555351,3.05011973 8.94076257,2.55279057 C9.13969423,2.4091177 9.36072942,2.30412599 9.59834224,2.25439307 C10.1896113,2.12177197 10.570897,1.53602873 10.4382759,0.939233745 C10.3111807,0.359016393 9.70885983,-0.0333210536 9.1231166,0.0937741757 Z" id="Fill-4" fill="#34444C" mask="url(#mask-4)"></path>
                </g>
                <path d="M20.4456438,2.76305029 C20.8048259,2.76305029 21.1419046,2.87909376 21.4513538,3.10012894 C21.6447596,3.23827593 21.8657948,3.31011236 22.1034076,3.31011236 C22.4570639,3.31011236 22.7886167,3.14433597 22.9986001,2.85699024 C23.3577823,2.36518696 23.2472647,1.67445202 22.7554614,1.31526985 C21.6613373,0.514017314 20.2301345,0.337189169 18.9923374,0.840044207 C18.7215693,0.950561798 18.50606,1.16054522 18.3900166,1.43131332 C18.2739731,1.70208141 18.2739731,2.00047891 18.3844907,2.27677289 C18.6055259,2.82936084 19.2686314,3.1111807 19.8212194,2.88461964 C20.0256769,2.80173144 20.2356603,2.76305029 20.4456438,2.76305029 Z" id="Fill-7" fill="#34444C"></path>
                <path d="M16.3123411,3.7410757 C16.8041444,3.7410757 17.2241113,3.42610057 17.37331,2.96192669 C17.5501381,2.37618346 17.2241113,1.75728495 16.6438939,1.58045681 C16.0692024,1.39810278 15.4337263,1.73518143 15.262424,2.30434703 C15.1740099,2.58616688 15.2016393,2.88456438 15.3397863,3.14980659 C15.4724074,3.40952293 15.7044944,3.60292872 15.9863142,3.69134279 C16.0968318,3.72449807 16.2073494,3.7410757 16.3123411,3.7410757 Z" id="Fill-9" fill="#34444C"></path>
                <g id="Group-13" transform="translate(13.262111, 15.467047)" fill="#34444C">
                    <path d="M33.8030208,0.651722232 L23.2088046,5.46752625 L23.2088046,1.6579849 C23.2088046,1.2816725 23.0176091,0.931884325 22.7020814,0.728531958 C22.3854485,0.525179591 21.9881378,0.495339842 21.6460858,0.651722232 L11.0518696,5.46752625 L11.0518696,1.6579849 C11.0518696,1.2816725 10.8606742,0.931884325 10.5451464,0.728531958 C10.2290661,0.525179591 9.8312028,0.495339842 9.48915086,0.651722232 L0.647743599,4.67014183 C0.0923927058,4.92267453 -0.153508934,5.57804384 0.0990237613,6.13394732 C0.351556456,6.6898508 1.00747836,6.93630503 1.56282925,6.68266716 L8.84151777,3.37432308 L8.84151777,7.18386443 C8.84151777,7.55962424 9.03271321,7.90941241 9.34824093,8.11276478 C9.66376865,8.31611715 10.061632,8.34540431 10.4042365,8.18957451 L20.9984528,3.37432308 L20.9984528,7.18386443 C20.9984528,7.55962424 21.1896482,7.90941241 21.5051759,8.11276478 C21.8212562,8.31611715 22.2180144,8.34540431 22.5611715,8.18957451 L33.1553877,3.37432308 L33.1553877,27.0770308 L1.10528642,27.0770308 C0.494676736,27.0770308 0.000110517591,27.571597 0.000110517591,28.1822067 C0.000110517591,28.7922638 0.494676736,29.2873826 1.10528642,29.2873826 L33.1553877,29.2873826 L33.1553877,31.4977344 L1.10528642,31.4977344 C0.494676736,31.4977344 0.000110517591,31.9923006 0.000110517591,32.6029103 C0.000110517591,33.2129674 0.494676736,33.7080862 1.10528642,33.7080862 L34.2605636,33.7080862 C34.8706207,33.7080862 35.3657395,33.2129674 35.3657395,32.6029103 L35.3657395,1.6579849 C35.3657395,1.2816725 35.1745441,0.931884325 34.8590164,0.728531958 C34.5423835,0.525179591 34.1450728,0.495339842 33.8030208,0.651722232 Z" id="Fill-11"></path>
                </g>
                <path d="M22.1036287,37.0179775 C22.7136858,37.0179775 23.2088046,36.5228587 23.2088046,35.9128016 C23.2088046,35.3027445 22.7136858,34.8076257 22.1036287,34.8076257 L15.4725732,34.8076257 C14.8625161,34.8076257 14.3673973,35.3027445 14.3673973,35.9128016 C14.3673973,36.5228587 14.8625161,37.0179775 15.4725732,37.0179775 L22.1036287,37.0179775 Z" id="Fill-18" fill="#34444C"></path>
                <path d="M32.0502118,37.0179775 C32.6602689,37.0179775 33.1553877,36.5228587 33.1553877,35.9128016 C33.1553877,35.3027445 32.6602689,34.8076257 32.0502118,34.8076257 L25.4191564,34.8076257 C24.8090993,34.8076257 24.3139805,35.3027445 24.3139805,35.9128016 C24.3139805,36.5228587 24.8090993,37.0179775 25.4191564,37.0179775 L32.0502118,37.0179775 Z" id="Fill-19" fill="#34444C"></path>
                <path d="M41.996795,37.0179775 C42.6068521,37.0179775 43.1019709,36.5228587 43.1019709,35.9128016 C43.1019709,35.3027445 42.6068521,34.8076257 41.996795,34.8076257 L35.3657395,34.8076257 C34.7556824,34.8076257 34.2605636,35.3027445 34.2605636,35.9128016 C34.2605636,36.5228587 34.7556824,37.0179775 35.3657395,37.0179775 L41.996795,37.0179775 Z" id="Fill-20" fill="#34444C"></path>
            </g>
        </g>
    </g>
</svg>

<svg width="49" height="50" xmlns="http://www.w3.org/2000/svg" xmlns:xlink="http://www.w3.org/1999/xlink"><defs><path id="a" d="M0 0h12.157v44.207H0z"/><path id="c" d="M.55.006h9.915v3.31H.55z"/></defs><g fill="none" fill-rule="evenodd"><g transform="translate(0 4.968)"><mask id="b" fill="#fff"><use xlink:href="#a"/></mask><path d="M2.24 41.997l.058-2.21h5.438a1.106 1.106 0 0 0 0-2.211h-5.38L3.2 5.526h5.757l.96 36.47H2.24zM8.87 2.21l.03 1.106H3.257l.029-1.106H8.87zM2.21 0c-.598 0-1.089.477-1.105 1.076L0 43.073a1.108 1.108 0 0 0 1.105 1.134h9.947a1.105 1.105 0 0 0 1.105-1.134L11.05 1.076A1.105 1.105 0 0 0 9.947 0H2.21z" fill="#34444C" mask="url(#b)"/></g><g transform="translate(3.868 .547)"><mask id="d" fill="#fff"><use xlink:href="#c"/></mask><path d="M9.123.094a3.934 3.934 0 0 0-1.486.674 1.691 1.691 0 0 1-2.012 0A3.906 3.906 0 0 0 3.321.005c-.84 0-1.636.266-2.315.763a1.127 1.127 0 0 0-.442.724c-.045.293.027.58.198.823.349.47 1.072.586 1.548.238a1.669 1.669 0 0 1 2.011 0 3.91 3.91 0 0 0 2.31.762 3.91 3.91 0 0 0 2.31-.762c.199-.144.42-.249.657-.299.592-.132.973-.718.84-1.315A1.125 1.125 0 0 0 9.123.094z" fill="#34444C" mask="url(#d)"/></g><path d="M20.446 2.763c.359 0 .696.116 1.005.337.194.138.415.21.652.21a1.104 1.104 0 0 0 .652-1.995A3.902 3.902 0 0 0 18.992.84c-.27.11-.486.32-.602.591-.116.271-.116.57-.006.846.222.552.885.834 1.437.608.205-.083.415-.122.625-.122zM16.312 3.741a1.11 1.11 0 0 0 1.061-.78 1.107 1.107 0 0 0-.73-1.38 1.11 1.11 0 0 0-1.38.723 1.1 1.1 0 0 0 .077.846 1.086 1.086 0 0 0 .972.591zM47.065 16.119l-10.594 4.816v-3.81a1.106 1.106 0 0 0-1.563-1.006l-10.594 4.816v-3.81a1.106 1.106 0 0 0-1.563-1.006l-8.841 4.018a1.106 1.106 0 0 0 .915 2.013l7.279-3.309v3.81a1.105 1.105 0 0 0 1.562 1.006l10.595-4.816v3.81a1.105 1.105 0 0 0 1.562 1.006l10.594-4.816v23.703h-32.05a1.105 1.105 0 1 0 0 2.21h32.05v2.21h-32.05a1.105 1.105 0 1 0 0 2.211h33.156c.61 0 1.105-.495 1.105-1.105V17.125a1.106 1.106 0 0 0-1.563-1.006z" fill="#34444C"/><path d="M22.104 37.018a1.106 1.106 0 0 0 0-2.21h-6.631a1.106 1.106 0 0 0 0 2.21h6.63zM32.05 37.018a1.106 1.106 0 0 0 0-2.21h-6.63a1.106 1.106 0 0 0 0 2.21h6.63zM41.997 37.018a1.106 1.106 0 0 0 0-2.21h-6.631a1.106 1.106 0 0 0 0 2.21h6.63z" fill="#34444C"/></g></svg>
